X: 24266
T: Lori
R: reel
M: 4/4
K: Amajor
A2 c/d/e f3 F|FEAB G2 FE|DDFA G2 FE|D2 FA AGFG|
A3 c defF|FEAB G2 FE|DFcd B4-|1 BAAB AGFE:|2 BAAB GEFG||
|:A3 E Fc B2-|BABc cBAG|FEEA FE E2-|EAAB AGFE|
DFcd B,DcB-|BAAB A/G/F GA|BcAD decB-|B2 BA GEFG:|

